X: 1
T: Flowers Of Alston, The
M: 3/4
L: 1/8
R: mazurka
K: D Major
|: AG |\ 
FA d2 ed | ce g2 ef | ge fd ec | df A2 AG |
FA d2 ed | ce G2 BG | Fd Ge dc | d2 D2 :|
|: AG |\ 
FA d2 AF | BG D2 BA | ^GB e2 Bd | cA E2 AG |
FA dA fd | ce G2 BG | Fd Ge dc | d2 D2 :|
